static/assets/img/icons/theme/communication/add-user.svg

<svg height="24" viewBox="0 0 24 24" width="24" xmlns="http://www.w3.org/2000/svg"><g fill="none" fill-rule="evenodd"><path d="m0 0h24v24h-24z" opacity="0"/><g fill="#000" fill-rule="nonzero"><path d="m18 8h-2c-.5522847 0-1-.44771525-1-1s.4477153-1 1-1h2v-2c0-.55228475.4477153-1 1-1s1 .44771525 1 1v2h2c.5522847 0 1 .44771525 1 1s-.4477153 1-1 1h-2v2c0 .5522847-.4477153 1-1 1s-1-.4477153-1-1zm-9 3c-2.209139 0-4-1.790861-4-4s1.790861-4 4-4 4 1.790861 4 4-1.790861 4-4 4z" opacity=".3"/><path d="m.00065168 20.1992055c.38760685-4.7726896 4.26126067-7.1992055 8.98268966-7.1992055 4.78787506 0 8.72154236 2.2931929 9.01457296 7.2.0116736.1954741 0 .8-.7512144.8-3.7055759 0-9.21197518 0-16.51919767 0-.25079007 0-.74796398-.54082-.72685055-.8007945z"/></g></g></svg>

<svg width="24px" height="24px" viewBox="0 0 24 24" version="1.1" xmlns="http://www.w3.org/2000/svg" xmlns:xlink="http://www.w3.org/1999/xlink">
    <title>Icon For Add-user</title>
    <g stroke="none" stroke-width="1" fill="none" fill-rule="evenodd">
        <polygon points="0 0 24 0 24 24 0 24" opacity="0"></polygon>
        <path d="M18,8 L16,8 C15.4477153,8 15,7.55228475 15,7 C15,6.44771525 15.4477153,6 16,6 L18,6 L18,4 C18,3.44771525 18.4477153,3 19,3 C19.5522847,3 20,3.44771525 20,4 L20,6 L22,6 C22.5522847,6 23,6.44771525 23,7 C23,7.55228475 22.5522847,8 22,8 L20,8 L20,10 C20,10.5522847 19.5522847,11 19,11 C18.4477153,11 18,10.5522847 18,10 L18,8 Z M9,11 C6.790861,11 5,9.209139 5,7 C5,4.790861 6.790861,3 9,3 C11.209139,3 13,4.790861 13,7 C13,9.209139 11.209139,11 9,11 Z" fill="#000000" fill-rule="nonzero" opacity="0.3"></path>
        <path d="M0.00065168429,20.1992055 C0.388258525,15.4265159 4.26191235,13 8.98334134,13 C13.7712164,13 17.7048837,15.2931929 17.9979143,20.2 C18.0095879,20.3954741 17.9979143,21 17.2466999,21 C13.541124,21 8.03472472,21 0.727502227,21 C0.476712155,21 -0.0204617505,20.45918 0.00065168429,20.1992055 Z" fill="#000000" fill-rule="nonzero"></path>
    </g>
</svg>
